img/icons/cursor.svg

<svg xmlns="http://www.w3.org/2000/svg" width="31" height="31" viewBox="0 0 31 31"><path d="M17.083 5.291l-1.825 1.857a.81.81 0 0 1-1.161 0 .846.846 0 0 1 0-1.182l1.825-1.857a.811.811 0 0 1 1.161 0 .846.846 0 0 1 0 1.182zm-5.521 1.014a.828.828 0 0 1-.821-.835V.841c0-.461.368-.835.821-.835.454 0 .822.374.822.835V5.47a.829.829 0 0 1-.822.835zM8.291 7.778a.813.813 0 0 1-.581-.245L5.885 5.676a.846.846 0 0 1 0-1.182.813.813 0 0 1 1.162 0L8.871 6.35a.847.847 0 0 1 0 1.183.81.81 0 0 1-.58.245zm-.626 2.493a.828.828 0 0 1-.821.835H.821A.828.828 0 0 1 0 10.271a.83.83 0 0 1 .821-.836h6.023a.83.83 0 0 1 .821.836zm-.333 2.579a.81.81 0 0 1 1.161 0 .846.846 0 0 1 0 1.182l-2.316 2.357a.809.809 0 0 1-1.161 0 .845.845 0 0 1 0-1.181l2.316-2.358z" fill="#2E8DD6"/><path d="M27 30l-6-6-2 5-8-19 19 9-6 2 6 6-3 3z" fill="none" stroke="#338BC3" stroke-width="1.5" stroke-linecap="round" stroke-linejoin="round"/></svg>

<svg version="1.1" xmlns="http://www.w3.org/2000/svg" xmlns:xlink="http://www.w3.org/1999/xlink" width="31" height="31" viewBox="0 0 31 31"><g id="cursor"><path id="-Block5_icon1" d="M17.083,5.291 C17.083,5.291 15.258,7.148 15.258,7.148 C15.098,7.311 14.888,7.392 14.677,7.392 C14.467,7.392 14.257,7.311 14.097,7.148 C13.776,6.822 13.776,6.292 14.097,5.966 C14.097,5.966 15.922,4.109 15.922,4.109 C16.242,3.783 16.762,3.783 17.083,4.109 C17.404,4.436 17.404,4.965 17.083,5.291 zM11.562,6.305 C11.109,6.305 10.741,5.931 10.741,5.470 C10.741,5.470 10.741,0.841 10.741,0.841 C10.741,0.380 11.109,0.006 11.562,0.006 C12.016,0.006 12.384,0.380 12.384,0.841 C12.384,0.841 12.384,5.470 12.384,5.470 C12.384,5.931 12.016,6.305 11.562,6.305 zM8.291,7.778 C8.080,7.778 7.871,7.696 7.710,7.533 C7.710,7.533 5.885,5.676 5.885,5.676 C5.564,5.350 5.564,4.821 5.885,4.494 C6.206,4.168 6.726,4.168 7.047,4.494 C7.047,4.494 8.871,6.350 8.871,6.350 C9.192,6.678 9.192,7.206 8.871,7.533 C8.711,7.696 8.501,7.778 8.291,7.778 zM7.665,10.271 C7.665,10.733 7.297,11.106 6.844,11.106 C6.844,11.106 0.821,11.106 0.821,11.106 C0.368,11.106 0.000,10.733 0.000,10.271 C0.000,9.810 0.368,9.435 0.821,9.435 C0.821,9.435 6.844,9.435 6.844,9.435 C7.297,9.435 7.665,9.810 7.665,10.271 zM7.332,12.850 C7.653,12.523 8.173,12.523 8.493,12.850 C8.814,13.176 8.814,13.705 8.493,14.032 C8.493,14.032 6.177,16.389 6.177,16.389 C6.017,16.553 5.806,16.634 5.596,16.634 C5.386,16.634 5.176,16.553 5.016,16.389 C4.695,16.062 4.695,15.534 5.016,15.208 C5.016,15.208 7.332,12.850 7.332,12.850 z" fill="#2E8DD6" /><g id="Shape-80" ><path id="Shape-80-stroke" d="M27.000,30.000 L21.000,24.000 L19.000,29.000 L11.000,10.000 L30.000,19.000 L24.000,21.000 L30.000,27.000 L27.000,30.000 z" fill="none" stroke="#338BC3" stroke-width="1.5" stroke-linecap="round" stroke-linejoin="round" /></g></g></svg>
